X: 43361
T: Wren's, The
R: hornpipe
M: 4/4
K: Amixolydian
AG|:(3EGA AB cB cd|ef ed Bc d2|eA (3AAA BA GB|AG EF (3GFE DG|
EA AB (3ccB cd|ef ed Bc d2|eA (3AAA BA GB|1 (3AAA AG [AE] AG:|2 (3AAA AG [A4E4]||
|:(3aaa ag ef ec|(3ddd dc Bc d2|eA (3AAA BA GB|AG EF (3GGE DG|
EA (3AAB cB (3ccd|ef ed (3BBB (3Bcd|eA (3AAA BA (3GAB|[A4E4] [A4E4]:|

